X:1
T:Title
%%score { ( 1 4 ) | ( 2 3 ) }
L:1/8
M:3/4
K:D
V:1 treble nm="Grand Piano"
V:4 treble 
V:2 bass 
V:3 bass 
V:1
 z2 z2[Q:1/4=118] [FA]2 | [FA]4 [EG]2 | F2 A2 [Fd]2 | [Gd]4 [GB]2 | [FA]4 [FA]2 | %5
 [FA]2 [EG]2 [DF]2 | [CE]2 F2 [A,EG]2 |[M:2/4] [A,DF]4 |[M:1/4] [DFA]2 |[M:3/4] [DGB]4 [DGB]2 | %10
 [Bd]2 c2 B2 | [FA]4 [Fd]2 | [Fd]4 [Fd]2 | e4 d2 | c2 B2 [Gc]2 |[M:2/4] [Fd]4 |] %16
V:2
 z2 z2 [D,D]2 | [D,D]4 [D,A,]2 | D2 z2 z2 | [G,B,]4 [G,D]2 | [D,D]4 [D,A,]2 | [A,,A,]4 [A,,A,]2 | %6
 z2 D2 A,,2 |[M:2/4] D,4 |[M:1/4] D,2 |[M:3/4] G,4 G,2 | z2[K:treble] A2 [G,DG]2 | [D,D]4 [D,A,]2 | %12
 [D,A,]4 [D,A,]2 | [A,G]4 [A,F]2 | [A,,A,]4 [A,,A,]2 |[M:2/4] [D,A,]4 |] %16
V:3
 x6 | x6 | [D,A,]2- [D,A,F]2 [D,A,]2 | x6 | x6 | x6 | [A,,A,]4 z2 |[M:2/4] x4 |[M:1/4] x2 | %9
[M:3/4] x6 | G,4[K:treble] z2 | x6 | x6 | x6 | x6 |[M:2/4] x4 |] %16
V:4
 x6 | x6 | x6 | x6 | x6 | x6 | x6 |[M:2/4] x4 |[M:1/4] x2 |[M:3/4] x6 | D4 z2 | x6 | x6 | x6 | %14
 G4 z2 |[M:2/4] x4 |] %16

